packages/core/assets/Icons/first_page.svg

<svg viewBox="0 0 20 20" fill="none" xmlns="http://www.w3.org/2000/svg">
<path d="M5.83333 15C5.59722 15 5.39931 14.9201 5.23958 14.7604C5.07986 14.6007 5 14.4028 5 14.1667V5.83333C5 5.59722 5.07986 5.39931 5.23958 5.23958C5.39931 5.07986 5.59722 5 5.83333 5C6.06944 5 6.26736 5.07986 6.42708 5.23958C6.58681 5.39931 6.66667 5.59722 6.66667 5.83333V14.1667C6.66667 14.4028 6.58681 14.6007 6.42708 14.7604C6.26736 14.9201 6.06944 15 5.83333 15ZM11.5 10L14.75 13.25C14.9028 13.4028 14.9792 13.5972 14.9792 13.8333C14.9792 14.0694 14.9028 14.2639 14.75 14.4167C14.5972 14.5694 14.4028 14.6458 14.1667 14.6458C13.9306 14.6458 13.7361 14.5694 13.5833 14.4167L9.75 10.5833C9.66667 10.5 9.60764 10.4097 9.57292 10.3125C9.53819 10.2153 9.52083 10.1111 9.52083 10C9.52083 9.88889 9.53819 9.78472 9.57292 9.6875C9.60764 9.59028 9.66667 9.5 9.75 9.41667L13.5833 5.58333C13.7361 5.43056 13.9306 5.35417 14.1667 5.35417C14.4028 5.35417 14.5972 5.43056 14.75 5.58333C14.9028 5.73611 14.9792 5.93056 14.9792 6.16667C14.9792 6.40278 14.9028 6.59722 14.75 6.75L11.5 10Z" fill="currentColor"/>
</svg>

<svg xmlns="http://www.w3.org/2000/svg" width="20" height="20" fill="none" viewBox="0 0 20 20">
  <path fill="#201F1F" d="M5.833 15a.806.806 0 0 1-.593-.24.806.806 0 0 1-.24-.593V5.833c0-.236.08-.434.24-.593.16-.16.357-.24.593-.24s.434.08.594.24c.16.16.24.357.24.593v8.334c0 .236-.08.434-.24.593a.806.806 0 0 1-.594.24Zm5.667-5 3.25 3.25a.79.79 0 0 1 .23.583.79.79 0 0 1-.23.584.79.79 0 0 1-.583.229.79.79 0 0 1-.584-.23L9.75 10.584a.73.73 0 0 1-.177-.27A.922.922 0 0 1 9.52 10c0-.111.017-.215.052-.313a.731.731 0 0 1 .177-.27l3.833-3.834a.79.79 0 0 1 .584-.229.79.79 0 0 1 .583.23.79.79 0 0 1 .23.583.79.79 0 0 1-.23.583L11.5 10Z"/>
</svg>
